nextgisweb/svg_marker_library/icon/resource/svg_marker_library.svg

<svg enable-background="new 0 0 32 32" version="1.1" viewBox="0 0 32 32" xmlns="http://www.w3.org/2000/svg">
<path d="m25.5 4h-19c-1.209 0-2.218.859-2.45 2h19.95c1.105 0 2 .895 2 2v19.95c1.141-.232 2-1.24 2-2.45v-19c0-1.381-1.119-2.5-2.5-2.5z" fill="#1eabe6"/>
<path d="m29.5 0h-19c-1.209 0-2.218.859-2.45 2h19.95c1.105 0 2 .895 2 2v19.95c1.141-.232 2-1.24 2-2.45v-19c0-1.381-1.119-2.5-2.5-2.5z" fill="#7acdf0"/>
<path d="m17.03 20.51c-.129 2.116-1.087 3.946-2.789 5.297-1.784 1.417-4.307 2.19-6.941 2.19-.823 0-1.657-.076-2.484-.231-.424-.079-.749-.422-.807-.85-.058-.427.166-.844.554-1.032 1.208-.588 1.576-1.7 2.077-3.466.687-2.425 1.546-5.436 6.382-5.913.78-2.578 2.959-5.177 7.163-8.505h-17.685c-1.381 0-2.5 1.119-2.5 2.5v19c0 1.381 1.119 2.5 2.5 2.5h19c1.381 0 2.5-1.119 2.5-2.5v-14.297c-2.621 3.009-4.803 4.652-6.97 5.307z" fill="#106a90"/>
<path d="m21.783 8.028c-4.103 3.128-6.977 5.968-7.817 8.805l2.734 2.734c2.376-.704 4.754-2.841 7.301-5.921v-3.146c-.001-1.284-.972-2.329-2.218-2.472z" fill="#1eabe6"/>
</svg>

<svg xmlns="http://www.w3.org/2000/svg" viewBox="0 0 32 32"><path fill="#1eabe6" d="M25.5 4h-19C5.3 4 4.3 4.9 4 6h20a2 2 0 0 1 2 2v20c1.1-.3 2-1.3 2-2.5v-19C28 5.1 26.9 4 25.5 4z"/><path fill="#7acdf0" d="M29.5 0h-19C9.3 0 8.3.9 8 2h20a2 2 0 0 1 2 2v20c1.1-.3 2-1.3 2-2.5v-19C32 1.1 30.9 0 29.5 0z"/><path fill="#106a90" d="M17 20.5c-.1 2.1-1 4-2.8 5.3A11.3 11.3 0 0 1 7.3 28c-.8 0-1.7 0-2.5-.2a1 1 0 0 1-.2-2c1.2-.5 1.5-1.6 2-3.4.7-2.4 1.6-5.4 6.4-5.9.8-2.6 3-5.2 7.2-8.5H2.5A2.5 2.5 0 0 0 0 10.5v19C0 30.9 1.1 32 2.5 32h19c1.4 0 2.5-1.1 2.5-2.5V15.2a16 16 0 0 1-7 5.3z"/><path fill="#1eabe6" d="M21.8 8c-4.1 3.2-7 6-7.8 8.8l2.7 2.8c2.4-.7 4.8-2.9 7.3-6v-3.1c0-1.3-1-2.3-2.2-2.5z"/></svg>
